svg/fluentui-system-icons/ic_fluent_braces_16_filled.svg

<svg width="16" height="16" viewBox="0 0 16 16" fill="none" xmlns="http://www.w3.org/2000/svg">
<path d="M4.75 2C3.50736 2 2.5 3.00736 2.5 4.25V6.00469C2.5 6.55124 2.48847 6.76025 2.42882 6.90909C2.39739 6.98753 2.32364 7.12464 1.9146 7.32915C1.66051 7.45619 1.50001 7.71588 1.5 7.99996C1.49999 8.28404 1.66049 8.54374 1.91458 8.67079C2.32353 8.87528 2.39713 9.01226 2.42864 9.09104C2.48849 9.24066 2.5 9.45099 2.5 10L2.5 11.75C2.5 12.9926 3.50736 14 4.75 14C5.16421 14 5.5 13.6642 5.5 13.25C5.5 12.8358 5.16421 12.5 4.75 12.5C4.33579 12.5 4 12.1642 4 11.75L4.00007 9.9269C4.00065 9.49147 4.00134 8.98392 3.82136 8.53396C3.74104 8.33315 3.63262 8.1571 3.49825 8.00007C3.63251 7.84324 3.74086 7.66748 3.82118 7.46708C4.00134 7.01751 4.00066 6.5109 4.00007 6.07746L4 4.25C4 3.83579 4.33579 3.5 4.75 3.5C5.16421 3.5 5.5 3.16421 5.5 2.75C5.5 2.33579 5.16421 2 4.75 2ZM11.25 2C12.4926 2 13.5 3.00736 13.5 4.25V6.00469C13.5 6.55124 13.5115 6.76025 13.5712 6.90909C13.6026 6.98753 13.6764 7.12464 14.0854 7.32915C14.3395 7.45619 14.5 7.71588 14.5 7.99996C14.5 8.28404 14.3395 8.54374 14.0854 8.67079C13.6765 8.87528 13.6029 9.01226 13.5714 9.09104C13.5115 9.24066 13.5 9.45099 13.5 10V11.75C13.5 12.9926 12.4926 14 11.25 14C10.8358 14 10.5 13.6642 10.5 13.25C10.5 12.8358 10.8358 12.5 11.25 12.5C11.6642 12.5 12 12.1642 12 11.75L11.9999 9.9269C11.9993 9.49147 11.9987 8.98392 12.1786 8.53396C12.259 8.33315 12.3674 8.1571 12.5018 8.00007C12.3675 7.84324 12.2591 7.66748 12.1788 7.46708C11.9987 7.01751 11.9993 6.5109 11.9999 6.07746L12 4.25C12 3.83579 11.6642 3.5 11.25 3.5C10.8358 3.5 10.5 3.16421 10.5 2.75C10.5 2.33579 10.8358 2 11.25 2Z" fill="#212121"/>
</svg>

<svg xmlns="http://www.w3.org/2000/svg" width="16" height="16"><path d="M4.75 2A2.25 2.25 0 0 0 2.5 4.25v1.755c0 .546-.012.755-.071.904-.032.079-.105.216-.514.42a.75.75 0 0 0 0 1.342c.409.204.482.341.514.42.06.15.071.36.071.909v1.75A2.25 2.25 0 0 0 4.75 14a.75.75 0 0 0 0-1.5.75.75 0 0 1-.75-.75V9.927c0-.436.001-.943-.179-1.393-.08-.2-.188-.377-.323-.534a1.88 1.88 0 0 0 .323-.533c.18-.45.18-.956.18-1.39L4 4.25a.75.75 0 0 1 .75-.75.75.75 0 0 0 0-1.5Zm6.5 0a2.25 2.25 0 0 1 2.25 2.25v1.755c0 .546.011.755.071.904.032.079.105.216.514.42a.75.75 0 0 1 0 1.342c-.409.204-.482.341-.514.42-.06.15-.071.36-.071.909v1.75A2.25 2.25 0 0 1 11.25 14a.75.75 0 0 1 0-1.5.75.75 0 0 0 .75-.75V9.927c0-.436-.001-.943.179-1.393.08-.2.188-.377.323-.534a1.895 1.895 0 0 1-.323-.533c-.18-.45-.18-.956-.18-1.39L12 4.25a.75.75 0 0 0-.75-.75.75.75 0 0 1 0-1.5Z"/></svg>
